remix/Weather/rainbow-line.svg

<svg viewBox="0 0 24 24" fill="currentColor" xmlns="http://www.w3.org/2000/svg"><path d="M12 4C18.0751 4 23 8.92487 23 15V20H21V15C21 10.1182 17.1132 6.14421 12.2654 6.00384L12 6C7.1182 6 3.14421 9.88681 3.00384 14.7346L3 15V20H1V15C1 8.92487 5.92487 4 12 4ZM12 8C15.866 8 19 11.134 19 15V20H17V15C17 12.3112 14.8777 10.1182 12.2169 10.0046L12 10C9.31124 10 7.11818 12.1223 7.00462 14.7831L7 15V20H5V15C5 11.134 8.13401 8 12 8ZM12 12C13.6569 12 15 13.3431 15 15V20H13V15C13 14.4872 12.614 14.0645 12.1166 14.0067L12 14C11.4872 14 11.0645 14.386 11.0067 14.8834L11 15V20H9V15C9 13.3431 10.3431 12 12 12Z"/></svg>

<svg viewBox="0 0 24 24" xmlns="http://www.w3.org/2000/svg"><path fill="none" d="M0 0h24v24H0Z"/><path d="M12 4c6.07 0 11 4.92 11 11v5h-2v-5 0c-.01-4.87-3.87-8.86-8.735-9l-.27-.01v0c-4.87 0-8.86 3.86-8.996 8.73l-.01.26v5h-2v-5c0-6.08 4.925-11 11-11Zm0 4v0c3.86 0 7 3.13 7 7v5h-2v-5 0c-.01-2.68-2.11-4.88-4.79-5l-.22-.01h0c-2.68 0-4.88 2.1-5 4.78l-.01.21v5h-2v-5 0c0-3.87 3.13-7 7-7Zm0 4v0c1.65 0 3 1.34 3 3v5h-2v-5 0c-.01-.51-.38-.94-.89-1l-.12-.01v0c-.51 0-.94.37-1 .88l-.01.11v5h-2v-5 0c0-1.66 1.34-3 3-3Z"/></svg>
